!!!!SEGMENT: pl-sa--228-a-vi-32--012_luna-georgius--litania-ex-d-regina-angelorum.krn
!!!cenid: 17xx:457
!!!COM: Luna, Georgius
!!!COM-rismID: pe41010079
!!!CDT:
!!!CNT:
!!!OPR: Litania ex D
!!!OTL: Regina angelorum
!!!OMV: 012
!!!PDT:
!!!AGN: Sacred; Mass
!!!SMS-siglum: PL-SA
!!!SMS-shelfmark: 228/A VI 32
!!!SMS-shelfwork: 001-012 M
!!!SMS-variant: Violino Primo: PL-SA 228/A VI 32:13
!!!SMS-altvar: Violino Imo: PL-SA 228/A VI 32:32
!!!NIFC-rismSourceID: 1001068968
!!!NIFC-rismChildID: 1001068968
!!!NIFC-islandoraID: none
!!!URL-pdf-islandora:
!!!URL-scan: https://bc.bdsandomierz.pl/dlibra/publication/1604/edition/1572/content @EN{Scan in the Sandomierz Diocese Digital Library} @PL{Skany w portalu Cyfrowa Biblioteka Diecezjalna w Sandomierzu}
!!!ONB-nifc: UWAGA: części Litanii: Sinfonia, Kyrie,
!!!AIN: 3 empty 1 tenor 2 violn 1 vox
!!!key:
**kern	**dynam	**kern	**dynam	**kern	**dynam	**kern	**text	**kern	**kern	**kern
*Iempty	*	*Ivioln	*	*Ivioln	*	*Itenor	*	*Ivox	*Iempty	*Iempty
*I"Fondamemto	*	*I"Violino Secundo	*	*I"Violino Primo	*	*I"Tenore	*	*I"Canto	*I"Clarino Socundo	*I"Clarino Primo
*I'bc	*	*I'vl 2	*	*I'vl 1	*	*I'T	*	*I'S	*I'clno 2 in D	*I'clno 1 in D
*clefF4	*	*clefG2	*	*clefG2	*	*clefC4	*	*clefC1	*clefG2	*clefG2
*	*	*	*	*	*	*	*	*	*Trd-1c-2	*Trd-1c-2
*k[f#c#]	*	*k[f#c#]	*	*k[f#c#]	*	*k[c#f#]	*	*k[f#c#]	*k[]	*k[]
*G:	*	*G:	*	*G:	*	*G:	*	*G:	*G:	*G:
*M4/4	*	*M4/4	*	*M4/4	*	*M4/4	*	*M4/4	*M4/4	*M4/4
*met(c)	*	*met(c)	*	*met(c)	*	*met(c)	*	*met(c)	*met(c)	*met(c)
!	!	!	!	!	!	!	!	!	!	!LO:TX:a:t=Solo
!LO:TX:a:t=Allo&colon;	!	!LO:TX:a:t=Allo&colon;	!	!LO:TX:a:t=Allo&colon;	!	!	!	!LO:TX:a:t=Tacet	!LO:TX:a:t=Allo&colon;	!LO:TX:rj:a:t=Allo
8r	.	8r	.	8r	.	8r	.	8ryy	8r	8g/
=1	=1	=1	=1	=1	=1	=1	=1	=1	=1	=1
8r	.	0r	.	0r	.	00r	.	1ryy	2r	4cc\
16D\LL	.	.	.	.	.	.	.	.	.	.
16F#\JJ	.	.	.	.	.	.	.	.	.	.
8A\L	.	.	.	.	.	.	.	.	.	4cc\
8d\J	.	.	.	.	.	.	.	.	.	.
4D\	.	.	.	.	.	.	.	.	4r	8cc\L
.	.	.	.	.	.	.	.	.	.	16ee\L
.	.	.	.	.	.	.	.	.	.	16dd\JJ
4r	.	.	.	.	.	.	.	.	8r	8cc\L
.	.	.	.	.	.	.	.	.	8g/	8dd\J
=2	=2	=2	=2	=2	=2	=2	=2	=2	=2	=2
8r	.	.	.	.	.	.	.	1ryy	4cc\	4ee\
16D\LL	.	.	.	.	.	.	.	.	.	.
16F#\JJ	.	.	.	.	.	.	.	.	.	.
8A\L	.	.	.	.	.	.	.	.	4cc\	4ee\
8d\J	.	.	.	.	.	.	.	.	.	.
4D\	.	.	.	.	.	.	.	.	8cc\L	8ee\L
.	.	.	.	.	.	.	.	.	16ee\L	16gg\L
.	.	.	.	.	.	.	.	.	16dd\JJ	16ff\JJ
4r	.	.	.	.	.	.	.	.	8cc\L	8ee\L
.	.	.	.	.	.	.	.	.	8dd\J	8ff\J
=3	=3	=3	=3	=3	=3	=3	=3	=3	=3	=3
8D\L	.	2r	.	2r	.	.	.	1ryy	8.ee\L	8.gg\L
8D\	.	.	.	.	.	.	.	.	.	.
.	.	.	.	.	.	.	.	.	16ff\K	16aa\K
8D\	.	.	.	.	.	.	.	.	8.ee\	8.gg\
8D\J	.	.	.	.	.	.	.	.	.	.
.	.	.	.	.	.	.	.	.	16ff\Jk	16aa\Jk
8D\L	.	8r	.	8r	.	.	.	.	4ee\	4gg\
16D\L	.	16d/LL	.	16d/LL	.	.	.	.	.	.
16F#\JJ	.	16f#/JJ	.	16f#/JJ	.	.	.	.	.	.
8A\L	.	8a\L	.	8a\L	.	.	.	.	4r	4r
8d\J	.	8dd\J	.	8dd\J	.	.	.	.	.	.
=4	=4	=4	=4	=4	=4	=4	=4	=4	=4	=4
!LO:TX:t=P:problem=mixed beam	!	!	!	!	!	!	!	!	!	!
8A\L	.	2r	.	2r	.	.	.	1ryy	8.dd\L	8.ff\L
8AA/	.	.	.	.	.	.	.	.	.	.
.	.	.	.	.	.	.	.	.	16ee\K	16gg\K
8AA/	.	.	.	.	.	.	.	.	8.dd\	8.ff\
8AA/J	.	.	.	.	.	.	.	.	.	.
.	.	.	.	.	.	.	.	.	16ee\Jk	16gg\Jk
8AA/L	.	8r	.	8r	.	.	.	.	4dd\	4ff\
16AA/L	.	16A/LL	.	16A/LL	.	.	.	.	.	.
16C#/JJ	.	16c#/JJ	.	16c#/JJ	.	.	.	.	.	.
8E\L	.	8e/L	.	8e/L	.	.	.	.	4r	4r
8A\J	.	8a/J	.	8a/J	.	.	.	.	.	.
=5	=5	=5	=5	=5	=5	=5	=5	=5	=5	=5
8D\L	.	2r	.	2r	.	00r	.	1ryy	8.cc\L	8.ee\L
8D\	.	.	.	.	.	.	.	.	.	.
.	.	.	.	.	.	.	.	.	16dd\K	16ff\K
8D\	.	.	.	.	.	.	.	.	8.cc\	8.ee\
8D\J	.	.	.	.	.	.	.	.	.	.
.	.	.	.	.	.	.	.	.	16dd\Jk	16ff\Jk
8D\L	.	8r	.	8r	.	.	.	.	4cc\	4ee\
16D\L	.	16d/LL	.	16d/LL	.	.	.	.	.	.
16F#\JJ	.	16f#/JJ	.	16f#/JJ	.	.	.	.	.	.
8A\L	.	8a\L	.	8a\L	.	.	.	.	4r	4r
8d\J	.	8dd\J	.	8dd\J	.	.	.	.	.	.
=6	=6	=6	=6	=6	=6	=6	=6	=6	=6	=6
!	!	!	!LO:DY:a	!	!LO:DY:a:t=p&colon;	!	!	!	!	!
8D\L	.	8d/L	p	8d/L	p	.	.	1ryy	8ee\	8gg\
8D\	.	8d/	.	8d/	.	.	.	.	4dd\	4ff\
8G\	.	8g/	.	8g/	.	.	.	.	.	.
8G\J	.	8g/J	.	8g/J	.	.	.	.	8cc\	8ee\
!	!	!	!	!	!LO:DY:a	!	!	!	!	!
8A\L	.	16a\LL	.	16a\LL	f	.	.	.	4g/	4dd\
.	.	16ee\	.	16ee\	.	.	.	.	.	.
8A\	.	16ff#\	.	16ff#\	.	.	.	.	.	.
.	.	16gg#X\JJ	.	16gg#X\JJ	.	.	.	.	.	.
8c#\	.	16aa\LL	.	16aa\LL	.	.	.	.	4r	4r
.	.	16ee\	.	16ee\	.	.	.	.	.	.
8A\J	.	16ff#\	.	16ff#\	.	.	.	.	.	.
.	.	16ee\JJ	.	16ee\JJ	.	.	.	.	.	.
=7	=7	=7	=7	=7	=7	=7	=7	=7	=7	=7
8B\L	.	16dd\LL	.	16dd\LL	.	.	.	1ryy	2r	2r
.	.	16b\	.	16b\	.	.	.	.	.	.
8E\	.	16bb\	.	16bb\	.	.	.	.	.	.
.	.	16aa\JJ	.	16aa\JJ	.	.	.	.	.	.
8E\	.	16gg#X\LL	.	16gg#X\LL	.	.	.	.	.	.
.	.	16ff#\	.	16ff#\	.	.	.	.	.	.
8E\J	.	16ee\	.	16ee\	.	.	.	.	.	.
.	.	16dd\JJ	.	16dd\JJ	.	.	.	.	.	.
!LO:TX:t=P:problem=mixed beam	!	!	!	!	!	!	!	!	!	!
8A\L	.	16cc#\LL	.	16cc#\LL	.	.	.	.	4r	4r
.	.	16a\	.	16a\	.	.	.	.	.	.
8D\	.	16ff#\	.	16ff#\	.	.	.	.	.	.
.	.	16aa\JJ	.	16aa\JJ	.	.	.	.	.	.
8E\	.	16cc#\LL	.	16cc#\LL	.	.	.	.	8dd\L	8dd\L
.	.	16b\	.	16b\	.	.	.	.	.	.
8EE/J	.	16a\	.	16a\	.	.	.	.	16dd\L	16dd\L
.	.	16g#X\JJ	.	16g#X\JJ	.	.	.	.	16dd\JJ	16dd\JJ
!LO:LB:g=original	!	!	!	!	!	!	!	!	!	!
=8	=8	=8	=8	=8	=8	=8	=8	=8	=8	=8
!LO:TX:t=P:problem=mixed beam	!	!	!	!	!	!	!	!	!	!
8AA/L	.	4a/	.	4a/	.	.	.	1ryy	8g\L	8dd\L
8A\	.	.	.	.	.	.	.	.	8g\	8dd\
8AA/	.	4r	.	4r	.	.	.	.	8cc\	8ee\
8A\J	.	.	.	.	.	.	.	.	8dd\J	8ff\J
4D\	.	2r	.	2r	.	.	.	.	16cc\LL	16ee\LL
.	.	.	.	.	.	.	.	.	16ee\JJ	16gg\JJ
.	.	.	.	.	.	.	.	.	4dd\	4ff\
8r	.	.	.	.	.	.	.	.	.	.
8A\	.	.	.	.	.	.	.	.	8g/	8dd\
=9	=9	=9	=9	=9	=9	=9	=9	=9	=9	=9
!LO:TX:t=P:problem=mixed beam	!	!	!	!	!	!	!	!	!	!
8D\L	.	1r	.	1r	.	00r	.	1ryy	8cc\L	8ee\L
8A\	.	.	.	.	.	.	.	.	8g\	8dd\
8AA/	.	.	.	.	.	.	.	.	8cc\	8ee\
8A\J	.	.	.	.	.	.	.	.	8ee\J	8ff\J
!	!	!	!	!	!	!	!	!	!LO:LB:g=original	!LO:LB:g=original
4D\	.	.	.	.	.	.	.	.	16cc\LL	16ee\LL
.	.	.	.	.	.	.	.	.	16ee\JJ	16gg\JJ
.	.	.	.	.	.	.	.	.	4dd\	4ff\
8r	.	.	.	.	.	.	.	.	.	.
8A\	.	.	.	.	.	.	.	.	8g/	8dd\
=10	=10	=10	=10	=10	=10	=10	=10	=10	=10	=10
8D\L	.	16ff#\LL	.	16ff#\LL	.	.	.	1ryy	8cc\L	8ee\L
.	.	16aa\	.	16aa\	.	.	.	.	.	.
8D\	.	16ff#\	.	16ff#\	.	.	.	.	8cc\	8cc\
.	.	16dd\JJ	.	16dd\JJ	.	.	.	.	.	.
!	!	!LO:TX:t=P:problem=mixed beam	!	!LO:TX:t=P:problem=mixed beam	!	!	!	!	!	!
8F#\	.	16a/LL	.	16a/LL	.	.	.	.	8cc\	8cc\
.	.	16f#/	.	16f#/	.	.	.	.	.	.
8F#\J	.	16d/	.	16d/	.	.	.	.	8cc\J	8cc\J
.	.	16ccn\JJ	.	16ccn\JJ	.	.	.	.	.	.
!	!	!	!	!LO:LB:g=original	!	!	!	!	!	!
8G\L	.	16b\LL	.	16b\LL	.	.	.	.	8cc\L	8cc\L
.	.	16bb\	.	16bb\	.	.	.	.	.	.
8E\	.	16gg#X\	.	16gg#X\	.	.	.	.	8dd\	8dd\
.	.	16ee\JJ	.	16ee\JJ	.	.	.	.	.	.
!	!	!LO:TX:t=P:problem=mixed beam	!	!LO:TX:t=P:problem=mixed beam	!	!	!	!	!	!
8G#X\	.	16b/LL	.	16b/LL	.	.	.	.	8dd\	8dd\
.	.	16g#X/	.	16g#X/	.	.	.	.	.	.
8G#\J	.	16e/	.	16e/	.	.	.	.	8dd\J	8dd\J
.	.	16dd\JJ	.	16dd\JJ	.	.	.	.	.	.
!	!	!LO:LB:g=original	!	!	!	!	!	!	!	!
=11	=11	=11	=11	=11	=11	=11	=11	=11	=11	=11
!LO:TX:t=P:problem=mixed beam	!	!	!	!	!	!	!	!	!	!
8A\L	.	16cc#\LL	.	16cc#\LL	.	.	.	1ryy	8g/L	8dd\L
.	.	16ee\	.	16ee\	.	.	.	.	.	.
8AA/	.	16cc#\	.	16cc#\	.	.	.	.	8g/	8dd\
.	.	16a\JJ	.	16a\JJ	.	.	.	.	.	.
!	!	!LO:TX:t=P:problem=mixed beam	!	!LO:TX:t=P:problem=mixed beam	!	!	!	!	!	!
8C#/	.	16gn/LL	.	16gn/LL	.	.	.	.	8g/	8dd\
.	.	16e/	.	16e/	.	.	.	.	.	.
8C#/J	.	16A/	.	16A/	.	.	.	.	8g/J	8dd\J
.	.	16gg\JJ	.	16gg\JJ	.	.	.	.	.	.
!LO:TX:t=P:problem=mixed beam	!	!	!	!	!	!	!	!	!	!
8D\L	.	16ff#\LL	.	16ff#\LL	.	.	.	.	8cc\L	8ee\L
.	.	16dd\	.	16dd\	.	.	.	.	.	.
8G\	.	16bb\	.	16bb\	.	.	.	.	8dd\	8ff\
.	.	16gg\JJ	.	16gg\JJ	.	.	.	.	.	.
8A\	.	16ff#\LL	.	16ff#\LL	.	.	.	.	8cc\	8ee\
.	.	16dd\	.	16dd\	.	.	.	.	.	.
8AA/J	.	16ee\	.	16ee\	.	.	.	.	8g\J	8dd\J
.	.	16cc#\JJ	.	16cc#\JJ	.	.	.	.	.	.
=12	=12	=12	=12	=12	=12	=12	=12	=12	=12	=12
!LO:TX:t=P:problem=mixed beam	!	!	!	!	!	!	!	!	!	!
8D\L	.	16dd\LL	.	16dd\LL	.	.	.	1ryy	8cc\L	8ee\L
.	.	16b\	.	16b\	.	.	.	.	.	.
8G\	.	16bb\	.	16bb\	.	.	.	.	8dd\	8ff\
.	.	16gg\JJ	.	16gg\JJ	.	.	.	.	.	.
8A\	.	16ff#\LL	.	16ff#\LL	.	.	.	.	8cc\	8ee\
.	.	16dd\	.	16dd\	.	.	.	.	.	.
8AA/J	.	16ee\	.	16ee\	.	.	.	.	8g\J	8dd\J
.	.	16cc#\JJ	.	16cc#\JJ	.	.	.	.	.	.
!	!	!LO:TX:t=P:problem=mixed beam	!	!LO:TX:t=P:problem=mixed beam	!	!	!	!	!	!
8D\L	.	8dd\L	.	8dd\L	.	.	.	.	8cc\L	8ee\L
16D\L	.	16d/L	.	16d/L	.	.	.	.	16cc\L	16ee\L
16D\JJ	.	16d/JJ	.	16d/JJ	.	.	.	.	16cc\JJ	16ee\JJ
[4D\	.	4d/	.	4d/	.	.	.	.	4cc\	4ee\
=13	=13	=13	=13	=13	=13	=13	=13	=13	=13	=13
*tremolo	*	*	*	*	*	*	*	*	*	*
*2\right	*	*	*	*	*	*	*	*	*	*
!	!	!	!LO:DY:a:rj	!	!LO:DY:rj:a:t=p&colon;	!	!	!	!	!
8D\L	.	8a/L	p	8ff#\L	p	(4d\	Re-	1ryy	2r	2r
8D\	.	8a/	.	8ff#\	.	.	.	.	.	.
8D\	.	8a/	.	8ff#\	.	4f#\)	.	.	.	.
8D\J	.	8a/J	.	8ff#\J	.	.	.	.	.	.
*Xtremolo	*	*	*	*	*	*	*	*	*	*
8A\L	.	4cc#\	.	4ee\	.	16e\LL	-gi-	.	8r	8r
.	.	.	.	.	.	16c#\JJ	.	.	.	.
8AA/	.	.	.	.	.	8A\	-na	.	16g/LL	16dd\LL
.	.	.	.	.	.	.	.	.	16g/JJ	16dd\JJ
8C#/	.	8r	.	8r	.	8r	.	.	4g/	4dd\
8F#/J	.	8a/	.	8dd\	.	8d\	An-	.	.	.
=14	=14	=14	=14	=14	=14	=14	=14	=14	=14	=14
8E\L	.	8cc#\L	.	8ee\L	.	8e\	.	1ryy	2r	2r
8D\	.	8dd\J	.	8ff#\J	.	8f#\	-ge-	.	.	.
8C#\	.	4ee\	.	4gg\	.	4g\	-lo-	.	.	.
8AA\J	.	.	.	.	.	.	.	.	.	.
8D\L	.	4dd\	.	4ff#\	.	4f#\	-rum	.	8r	8r
8E\	.	.	.	.	.	.	.	.	16cc\LL	16ee\LL
.	.	.	.	.	.	.	.	.	16cc\JJ	16ee\JJ
8F#\	.	8r	.	8r	.	8r	.	.	4cc\	4ee\
8d\J	.	8dd\	.	8dd\	.	8d\	o-	.	.	.
=15	=15	=15	=15	=15	=15	=15	=15	=15	=15	=15
8c#\L	.	8cc#\L	.	8cc#\L	.	8c#\	-ra	1ryy	1r	1r
8B\	.	8b\	.	8b\	.	8B\	o-	.	.	.
8A\	.	8a\	.	8a\	.	8A\	-ra	.	.	.
8G\J	.	8g\J	.	8g\J	.	8G/	pro	.	.	.
!	!	!	!	!LO:TX:t=P:problem=mixed beam	!	!	!	!	!	!
8F#\L	.	8f#/L	.	8f#/L	.	8F#/L	no-	.	.	.
8E\	.	8e/	.	8e/	.	8E/J	.	.	.	.
8D\	.	8d/	.	8d/	.	8D/	-bis	.	.	.
8D\J	.	8a/J	.	8ff#\J	.	8f#\	Re-	.	.	.
!	!	!	!	!	!	!LO:LB:g=original	!	!	!	!
=16	=16	=16	=16	=16	=16	=16	=16	=16	=16	=16
4A\	.	4cc#\	.	4ee\	.	8e\	-gi-	1ryy	2r	2r
.	.	.	.	.	.	8d\	-na	.	.	.
8r	.	8r	.	8r	.	8c#\	pa-	.	.	.
8D\	.	8dd\	.	8ff#\	.	16d\	-tri-	.	.	.
.	.	.	.	.	.	16d\	-ar-	.	.	.
.	.	.	.	.	.	16qqe/LL	.	.	.	.
.	.	.	.	.	.	16qqf#/JJ	.	.	.	.
!LO:LB:g=original	!	!	!	!	!	!	!	!	!	!
8A\L	.	8ee\L	.	8gg\L	.	8g\	-ha-	.	8r	8r
8D\	.	8dd\	.	8ff#\	.	8f#\	-rum	.	16cc\LL	16ee\LL
.	.	.	.	.	.	.	.	.	16cc\JJ	16ee\JJ
8F#\	.	8dd\	.	8ff#\	.	8r	.	.	4cc\	4ee\
8A\J	.	8cc#\J	.	8ee\J	.	8e\	Re-	.	.	.
!	!	!	!	!LO:LB:g=original	!	!	!	!	!	!
=17	=17	=17	=17	=17	=17	=17	=17	=17	=17	=17
4D\	.	4a/	.	4ff#\	.	16f#\LL	-gi-	1ryy	1r	1r
.	.	.	.	.	.	16d\JJ	.	.	.	.
.	.	.	.	.	.	16A\LL	-na	.	.	.
.	.	.	.	.	.	16F#\JJ	.	.	.	.
8r	.	8r	.	8r	.	8D/	pro-	.	.	.
8D\	.	8a/	.	8ff#\	.	8f#\	-phe-	.	.	.
4A\	.	4cc#\	.	4ee\	.	16e\LL	-ta-	.	.	.
.	.	.	.	.	.	16c#\	.	.	.	.
.	.	.	.	.	.	16A\	.	.	.	.
.	.	.	.	.	.	16E\JJ	.	.	.	.
8r	.	8r	.	8r	.	8C#/	-rum	.	.	.
8A\	.	8cc#\	.	8ee\	.	8e\	O-	.	.	.
=18	=18	=18	=18	=18	=18	=18	=18	=18	=18	=18
4E\	.	4b\	.	4dd\	.	16d\LL	-ra	1ryy	2r	2r
.	.	.	.	.	.	16B\JJ	.	.	.	.
.	.	.	.	.	.	16G#X/LL	pro	.	.	.
.	.	.	.	.	.	16F#/JJ	.	.	.	.
!	!	!	!	!	!	!LO:TX:t=P:problem=mixed beam	!	!	!	!
8r	.	8r	.	8r	.	8E/L	no-	.	.	.
8E\	.	8b\	.	8dd\	.	8d\J	.	.	.	.
!LO:TX:t=P:problem=mixed beam	!	!	!	!	!	!	!	!	!	!
8AA/L	.	8a\L	.	8cc#\L	.	4c#\	-bis	.	8r	8r
8A\	.	8cc#\	.	8ee\	.	.	.	.	16g/LL	16dd\LL
.	.	.	.	.	.	.	.	.	16g/JJ	16dd\JJ
8A\	.	8cc#\	.	8ee\	.	8r	.	.	4g/	4dd\
8A\J	.	8cc#\J	.	8ee\J	.	8e\	o-	.	.	.
=19	=19	=19	=19	=19	=19	=19	=19	=19	=19	=19
*	*	*	*	*tremolo	*	*	*	*	*	*
*	*	*	*	*2\right	*	*	*	*	*	*
8D/L	.	8a/L	.	8ff#\L	.	16f#\LL	.	1ryy	0r	0r
.	.	.	.	.	.	16d\	.	.	.	.
8D/	.	8a/	.	8ff#\	.	16e\	.	.	.	.
.	.	.	.	.	.	16f#\JJ	.	.	.	.
8BB/	.	8a/	.	8ff#\	.	16d\LL	.	.	.	.
.	.	.	.	.	.	16f#\	.	.	.	.
8BB/J	.	8a/J	.	8ff#\J	.	16e\	.	.	.	.
.	.	.	.	.	.	16d\JJ	.	.	.	.
!	!	!LO:LB:g=original	!	!	!	!LO:LB:g=original	!	!	!	!
8C#/L	.	8a\L	.	8ee\L	.	16e\LL	.	.	.	.
.	.	.	.	.	.	16c#\	.	.	.	.
8C#/	.	8cc#\	.	8ee\	.	16d\	.	.	.	.
.	.	.	.	.	.	16e\JJ	.	.	.	.
8AA/	.	8cc#\	.	8ee\	.	16c#\LL	.	.	.	.
.	.	.	.	.	.	16e\	.	.	.	.
8AA/J	.	8cc#\J	.	8ee\J	.	16d\	.	.	.	.
.	.	.	.	.	.	16c#\JJ	.	.	.	.
=20	=20	=20	=20	=20	=20	=20	=20	=20	=20	=20
8BB/L	.	8b\L	.	8dd\L	.	16d\LL	.	1ryy	.	.
.	.	.	.	.	.	16B\	.	.	.	.
8BB/	.	8b\	.	8dd\	.	16c#\	.	.	.	.
.	.	.	.	.	.	16d\JJ	.	.	.	.
8E/	.	8b\	.	8dd\	.	16B\LL	.	.	.	.
.	.	.	.	.	.	16d\	.	.	.	.
8E/J	.	8b\J	.	8dd\J	.	16c#\	.	.	.	.
.	.	.	.	.	.	16B\JJ	.	.	.	.
8AA/L	.	8cc#\L	.	16cc#\LL	.	16c#\LL	.	.	.	.
.	.	.	.	16aa\	.	16a\	.	.	.	.
8BB/	.	8dd\	.	16gg#X\	.	16g#X\	.	.	.	.
.	.	.	.	16ff#\JJ	.	16f#\JJ	.	.	.	.
8C#/	.	8ee\	.	16ee\LL	.	16e\LL	-ra	.	.	.
.	.	.	.	16dd\	.	16d\JJ	.	.	.	.
8D/J	.	8ff#\J	.	16cc#\	.	16c#\LL	pro	.	.	.
.	.	.	.	16b\JJ	.	16B\JJ	.	.	.	.
=21	=21	=21	=21	=21	=21	=21	=21	=21	=21	=21
!	!LO:DY:a:t=for	!	!LO:DY:a	!	!	!	!	!	!	!
4E\	f	4cc#\	f	4a/	.	4A\	no-	1ryy	2r	2r
!	!	!	!	!LO:SIC:o:s=:v:kreska taktowa w środku taktu	!	!	!	!	!	!
4EE/	.	4b\	.	4bT/	.	4B\	.	.	.	.
!LO:TX:t=P:problem=mixed beam	!	!	!	!	!LO:DY:a:t=for	!	!	!	!	!
8AA/L	.	16aa\LL	.	16aa\LL	f	4A\	-bis	.	8g/L	8dd\L
.	.	16ee\	.	16ee\	.	.	.	.	.	.
8A\	.	16ff#\	.	16ff#\	.	.	.	.	8g/	8dd\
.	.	16dd\JJ	.	16dd\JJ	.	.	.	.	.	.
8A\	.	16cc#\LL	.	16cc#\LL	.	4r	.	.	8g/	8dd\
.	.	16a\	.	16a\	.	.	.	.	.	.
8A\J	.	16aa\	.	16aa\	.	.	.	.	8g/J	8dd\J
.	.	16gg#X\JJ	.	16gg#X\JJ	.	.	.	.	.	.
!	!	!	!	!	!	!	!	!	!LO:LB:g=original	!LO:LB:g=original
=22	=22	=22	=22	=22	=22	=22	=22	=22	=22	=22
8A\L	.	16aa\LL	.	16aa\LL	.	1r	.	1ryy	8g/L	8dd\L
.	.	16ee\	.	16ee\	.	.	.	.	.	.
8A\	.	16ff#\	.	16ff#\	.	.	.	.	8g/	8dd\
.	.	16dd\JJ	.	16dd\JJ	.	.	.	.	.	.
8A\	.	16cc#\LL	.	16cc#\LL	.	.	.	.	8g/	8dd\
.	.	16a\	.	16a\	.	.	.	.	.	.
8D\J	.	16aa\	.	16aa\	.	.	.	.	8g/J	8dd\J
.	.	16dd\JJ	.	16dd\JJ	.	.	.	.	.	.
4E\	.	4cc#\	.	4cc#\	.	.	.	.	4dd\	4gg\
4EE/	.	4bT\	.	4bT\	.	.	.	.	4dd\	4ff#X\
=23	=23	=23	=23	=23	=23	=23	=23	=23	=23	=23
!LO:TX:t=P:problem=mixed beam	!	!	!	!	!LO:DY:a	!	!	!	!	!
8AA/L	.	8a/L	.	8a\L	p	4A\	Re-	1ryy	4g/	4gg\
8A\	.	8e/	.	8cc#\	.	.	.	.	.	.
8A\	.	8e/	.	8cc#\	.	4c#\	.	.	4r	4r
8A\J	.	8e/J	.	8cc#\J	.	.	.	.	.	.
8E\L	.	4g#X/	.	4b\	.	16B\LL	-gi-	.	8r	8r
.	.	.	.	.	.	16G#X\JJ	.	.	.	.
8E\	.	.	.	.	.	8E/	-na	.	16dd\LL	16dd\LL
.	.	.	.	.	.	.	.	.	16dd\JJ	16dd\JJ
8G#X\	.	8r	.	8r	.	8r	.	.	4dd\	4dd\
8c#\J	.	8a/	.	8a/	.	8A\	A-	.	.	.
=24	=24	=24	=24	=24	=24	=24	=24	=24	=24	=24
8B\L	.	8g#X/L	.	8b\L	.	8B\	-po-	1ryy	2r	2r
8A\	.	8a/J	.	8cc#\J	.	8c#\	-sto-	.	.	.
.	.	.	.	8qqee/	.	.	.	.	.	.
8G#X\	.	4b\	.	4dd\	.	4d\	-lo-	.	.	.
8E\J	.	.	.	.	.	.	.	.	.	.
8A\L	.	4a/	.	4cc#\	.	4c#\	-rum	.	8r	8r
8B\	.	.	.	.	.	.	.	.	16g/LL	16dd\LL
.	.	.	.	.	.	.	.	.	16g/JJ	16dd\JJ
8c#\	.	8r	.	8r	.	8r	.	.	4g/	4dd\
8A\J	.	8aa\	.	8aa\	.	8a\	o-	.	.	.
!LO:LB:g=original	!	!	!	!LO:LB:g=original	!	!LO:LB:g=original	!	!	!	!
=25	=25	=25	=25	=25	=25	=25	=25	=25	=25	=25
8G#X\L	.	8gg#X\L	.	8gg#X\L	.	8g#X\	-ra	1ryy	00r	00r
8F#\	.	8ff#\	.	8ff#\	.	8f#\	o-	.	.	.
8E\	.	8ee\	.	8ee\	.	8e\	-ra	.	.	.
8D\J	.	8dd\J	.	8dd\J	.	8d\	pro	.	.	.
8C#/L	.	8cc#\L	.	8cc#\L	.	8c#\L	no-	.	.	.
8BB/J	.	8b\J	.	8b\J	.	8B\J	.	.	.	.
4AA/	.	4a/	.	4a\	.	4A\	-bis	.	.	.
=26	=26	=26	=26	=26	=26	=26	=26	=26	=26	=26
*tremolo	*	*tremolo	*	*	*	*	*	*	*	*
*	*	*2\right	*	*	*	*	*	*	*	*
8A\L	.	8cc#\L	.	8ee\L	.	8a\L	Re-	1ryy	.	.
8A\	.	8cc#\	.	8ee\	.	8e\J	.	.	.	.
8A\	.	8cc#\	.	8ee\	.	8c#\	-gi-	.	.	.
8A\J	.	8cc#\J	.	8ee\J	.	8A\	-na	.	.	.
8A\L	.	8cc#\L	.	8ee\L	.	8g\	Mar-	.	.	.
8A\	.	8cc#\	.	8ee\	.	8e\	-ti-	.	.	.
8A\	.	8cc#\	.	8ee\	.	8c#\	-rum	.	.	.
8A\J	.	8cc#\J	.	8ee\J	.	8A\	o-	.	.	.
=27	=27	=27	=27	=27	=27	=27	=27	=27	=27	=27
8A\L	.	8cc#\L	.	8ee\L	.	16A\LL	-ra	1ryy	.	.
.	.	.	.	.	.	16B\JJ	.	.	.	.
8A\	.	8cc#\	.	8ee\	.	16c#\LL	pro	.	.	.
.	.	.	.	.	.	16d\JJ	.	.	.	.
8A\	.	8cc#\	.	8ee\	.	16e\LL	no-	.	.	.
.	.	.	.	.	.	16f#\	.	.	.	.
8A\J	.	8cc#\J	.	8ee\J	.	16g\	.	.	.	.
.	.	.	.	.	.	16e\JJ	.	.	.	.
8D\L	.	8dd\L	.	8ff#\L	.	4f#\	-bis	.	.	.
8D\	.	8dd\	.	8ff#\	.	.	.	.	.	.
8D\	.	8dd\	.	8ff#\	.	8r	.	.	.	.
8D\J	.	8dd\J	.	8ff#\J	.	8d\	Re-	.	.	.
=28	=28	=28	=28	=28	=28	=28	=28	=28	=28	=28
8D\L	.	8a/L	.	8ff#\L	.	8d\	-gi-	1ryy	.	.
8D\	.	8a/	.	8ff#\	.	8A/	-na	.	.	.
8D\	.	8a/	.	8ff#\	.	8F#/	con-	.	.	.
8D\J	.	8a/J	.	8ff#\J	.	8D/	-fes-	.	.	.
8D\L	.	8ccn\L	.	8ff#\L	.	8cn\L	-so-	.	.	.
8D\	.	8ccn\	.	8ff#\	.	8A\J	.	.	.	.
!	!	!	!	!	!	!LO:LB:g=original	!	!	!	!
8D\	.	8ccn\	.	8ff#\	.	8F#/	-rum	.	.	.
8D\J	.	8ccn\J	.	8ff#\J	.	8D/	o-	.	.	.
!	!	!LO:LB:g=original	!	!	!	!	!	!	!	!
=29	=29	=29	=29	=29	=29	=29	=29	=29	=29	=29
8D\L	.	8a/L	.	8ff#\L	.	16D/LL	-ra	1ryy	0r	0r
.	.	.	.	.	.	16E/JJ	.	.	.	.
8D\	.	8a/	.	8ff#\	.	16F#/LL	pro	.	.	.
.	.	.	.	.	.	16G/JJ	.	.	.	.
8D\	.	8a/	.	8ff#\	.	16A\LL	no-	.	.	.
.	.	.	.	.	.	16B\	.	.	.	.
8D\J	.	8a/J	.	8ff#\J	.	16cn\	.	.	.	.
.	.	.	.	.	.	16A\JJ	.	.	.	.
8G\L	.	8b/L	.	8gg\L	.	4B\	-bis	.	.	.
8G\	.	8b/	.	8gg\	.	.	.	.	.	.
8G\	.	8b/	.	8gg\	.	8r	.	.	.	.
8G\J	.	8b/J	.	8gg\J	.	8G/	Re-	.	.	.
=30	=30	=30	=30	=30	=30	=30	=30	=30	=30	=30
8G\L	.	8b\L	.	8dd\L	.	16G/LL	-gi-	1ryy	.	.
.	.	.	.	.	.	16A/JJ	.	.	.	.
8G\	.	8b\	.	8dd\	.	16B\LL	-na	.	.	.
.	.	.	.	.	.	16c#\JJ	.	.	.	.
8G\	.	8b\	.	8dd\	.	16d\LL	Vir-	.	.	.
.	.	.	.	.	.	16e\JJ	.	.	.	.
8G\J	.	8b\J	.	8dd\J	.	16f#\LL	-gi-	.	.	.
.	.	.	.	.	.	16d\JJ	.	.	.	.
!	!	!	!	!	!	!LO:N:vis=8	!	!	!	!
8Cn/L	.	8g/L	.	8ee\L	.	4e\	-num	.	.	.
8Cn/	.	8g/	.	8ee\	.	.	.	.	.	.
8Cn/	.	8g/	.	8ee\	.	8r	.	.	.	.
8Cn/J	.	8g/J	.	8ee\J	.	8A/	o-	.	.	.
=31	=31	=31	=31	=31	=31	=31	=31	=31	=31	=31
8A\L	.	8cc#\L	.	8ee\L	.	16A\LL	-ra	1ryy	1r	1r
.	.	.	.	.	.	16B\JJ	.	.	.	.
8A\	.	8cc#\	.	8ee\	.	16c#X\LL	pro	.	.	.
.	.	.	.	.	.	16d\JJ	.	.	.	.
8A\	.	8cc#\	.	8ee\	.	16e\LL	no-	.	.	.
.	.	.	.	.	.	16f#\	.	.	.	.
8A\J	.	8cc#\J	.	8ee\J	.	16g\	.	.	.	.
.	.	.	.	.	.	16e\JJ	.	.	.	.
8D\L	.	8a/L	.	8ff#\L	.	4f#\	-bis	.	.	.
8D\	.	8a/	.	8ff#\	.	.	.	.	.	.
8D\	.	8a/	.	8ff#\	.	8r	.	.	.	.
8D\J	.	8a/J	.	8ff#\J	.	8f#\	Re-	.	.	.
*Xtremolo	*	*Xtremolo	*	*Xtremolo	*	*	*	*	*	*
=32	=32	=32	=32	=32	=32	=32	=32	=32	=32	=32
4A\	.	4cc#\	.	4ee\	.	16e\LL	-gi-	1ryy	8r	8r
.	.	.	.	.	.	16d\	.	.	.	.
.	.	.	.	.	.	16c#\	.	.	16g/LL	16dd\LL
.	.	.	.	.	.	16B\JJ	.	.	16g/JJ	16dd\JJ
8r	.	8r	.	8r	.	8A\	-na	.	4g/	4dd\
8D\	.	8a/	.	8ff#\	.	8f#\	San-	.	.	.
!	!	!	!	!	!	!LO:PB:g=original	!	!	!	!
!LO:TX:t=P:problem=mixed beam	!	!	!	!	!	!	!	!	!	!
8A\L	.	8dd\L	.	8ff#\L	.	8f#\	-cto-	.	8r	8r
8AA/	.	8cc#\	.	8ee\	.	8e\	-rum	.	16g/LL	16dd\LL
.	.	.	.	.	.	.	.	.	16g/JJ	16dd\JJ
8AA/	.	8cc#\	.	8ee\	.	8r	.	.	4g/	4dd\
8D/J	.	8a\J	.	8ff#\J	.	8f#\	San-	.	.	.
=33	=33	=33	=33	=33	=33	=33	=33	=33	=33	=33
4A\	.	4cc#\	.	4ee\	.	16e\LL	-cto-	1ryy	8r	8r
.	.	.	.	.	.	16d\	.	.	.	.
.	.	.	.	.	.	16c#\	.	.	16g/LL	16dd\LL
.	.	.	.	.	.	16B\JJ	.	.	16g/JJ	16dd\JJ
8r	.	8r	.	8r	.	8A\	.	.	4g/	4dd\
8D\	.	8a/	.	8ff#\	.	8f#\	-rum	.	.	.
!LO:TX:t=P:problem=mixed beam	!	!	!	!	!	!	!	!	!	!
8A\L	.	8dd\L	.	8ff#\L	.	16f#\	om-	.	8r	8r
.	.	.	.	.	.	16e\	-ni-	.	.	.
8AA/	.	8cc#\	.	8ee\	.	8e\	-um	.	16g/LL	16dd\LL
.	.	.	.	.	.	.	.	.	16g/JJ	16dd\JJ
8C#/	.	8cc#\	.	8ee\	.	8r	.	.	4g/	4dd\
8A\J	.	8cc#\J	.	8ee\J	.	8e\	o-	.	.	.
=34	=34	=34	=34	=34	=34	=34	=34	=34	=34	=34
*	*	*	*	*	*	*Xtuplet	*	*	*	*
!	!	!	!	!	!	!LO:TX:t=P:problem=klamra łukowa, kropka zamiast numeru	!	!	!	!
8D\L	.	8dd\L	.	8ff#\L	.	24f#\LL	.	1ryy	0r	0r
.	.	.	.	.	.	24e\	.	.	.	.
.	.	.	.	.	.	24d\JJ	.	.	.	.
8A\	.	8cc#\	.	8ee\	.	8.e\	.	.	.	.
8A\	.	8cc#\	.	8ee\	.	.	.	.	.	.
.	.	.	.	.	.	16g\LL	.	.	.	.
8A\J	.	8cc#\J	.	8ee\J	.	16f#\	.	.	.	.
.	.	.	.	.	.	16e\JJ	.	.	.	.
*tremolo	*	*	*	*	*	*	*	*	*	*
8A\L	.	8dd\L	.	8ff#\L	.	24f#\LL	.	.	.	.
.	.	.	.	.	.	24e\	.	.	.	.
.	.	.	.	.	.	24d\JJ	.	.	.	.
8A\	.	8cc#\	.	8ee\	.	8e\	-ra	.	.	.
8A\	.	8cc#\	.	8ee\	.	8r	.	.	.	.
8A\J	.	8cc#\J	.	8ee\J	.	8e\	o-	.	.	.
=35	=35	=35	=35	=35	=35	=35	=35	=35	=35	=35
!	!	!	!	!	!	!LO:TX:t=P:problem=klamra łukowa, kropka zamiast numeru	!	!	!	!
8A\L	.	8dd\L	.	8ff#\L	.	24f#\LL	.	1ryy	.	.
.	.	.	.	.	.	24e\	.	.	.	.
.	.	.	.	.	.	24d\JJ	.	.	.	.
!	!	!	!	!	!	!LO:N:vis=4.	!	!	!	!
8A\	.	8cc#\	.	8ee\	.	4e\	.	.	.	.
8A\	.	8cc#\	.	8ee\	.	.	.	.	.	.
!	!	!	!	!	!	!LO:TX:t=P:problem=klamra łukowa, kropka zamiast numeru	!	!	!	!
8A\J	.	8cc#\J	.	8ee\J	.	24g\LL	.	.	.	.
.	.	.	.	.	.	24f#\	.	.	.	.
.	.	.	.	.	.	24e\JJ	.	.	.	.
!	!	!	!	!LO:LB:g=original	!	!	!	!	!	!
!	!	!	!	!	!	!LO:TX:t=P:problem=klamra łukowa, kropka zamiast numeru	!	!	!	!
8A\L	.	8dd\L	.	8ff#\L	.	24f#\LL	.	.	.	.
.	.	.	.	.	.	24e\	.	.	.	.
.	.	.	.	.	.	24d\JJ	.	.	.	.
!	!	!	!	!	!	!LO:N:vis=4.	!	!	!	!
8A\	.	8cc#\	.	8ee\	.	4e\	-ra	.	.	.
8A\	.	8cc#\	.	8ee\	.	.	.	.	.	.
8A\J	.	8cc#\J	.	8ee\J	.	8g\	o-	.	.	.
*Xtremolo	*	*	*	*	*	*	*	*	*	*
!LO:LB:g=original	!	!	!	!	!	!	!	!	!	!
=36	=36	=36	=36	=36	=36	=36	=36	=36	=36	=36
!LO:TX:t=P:problem=mixed beam	!	!	!	!	!	!	!	!	!	!
8D\L	.	8dd\L	.	8ff#\L	.	8f#\	-ra	1ryy	1r	2r
8G\	.	8ee\J	.	8gg\J	.	16e\LL	pro	.	.	.
.	.	.	.	.	.	16d\JJ	.	.	.	.
.	.	8qqdd/	.	8qqff#/	.	.	.	.	.	.
!	!	!	!	!	!	!LO:LB:g=original	!	!	!	!
8A\	.	4cc#\	.	4ee\	.	4c#t\	no-	.	.	.
8AA/J	.	.	.	.	.	.	.	.	.	.
!LO:TX:t=P:problem=mixed beam	!	!	!	!	!	!	!	!	!	!
8D\L	.	8a/L	.	8ff#\L	.	8d\	-bis	.	.	4r
8G\	.	8g/J	.	8ee\J	.	8e\	pro	.	.	.
.	.	8qqf#/	.	8qqdd/	.	8qqd/	.	.	.	.
8A\	.	4e/	.	4cc#\	.	4c#\	no-	.	.	8r
8AA/J	.	.	.	.	.	.	.	.	.	8g/
=37	=37	=37	=37	=37	=37	=37	=37	=37	=37	=37
!	!LO:DY:a:t=for	!	!	!	!	!	!	!	!	!
8D\L	f	4f#/	.	4dd\	.	4d\	-bis	1ryy	2r	4cc\
16D\L	.	.	.	.	.	.	.	.	.	.
16F#\JJ	.	.	.	.	.	.	.	.	.	.
8A\L	.	4r	.	4r	.	4r	.	.	.	4cc\
8d\J	.	.	.	.	.	.	.	.	.	.
4D\	.	2r	.	2r	.	2r	.	.	4r	8cc\L
.	.	.	.	.	.	.	.	.	.	16ee\L
.	.	.	.	.	.	.	.	.	.	16dd\JJ
4r	.	.	.	.	.	.	.	.	8r	8cc\L
.	.	.	.	.	.	.	.	.	8g/	8dd\J
=38	=38	=38	=38	=38	=38	=38	=38	=38	=38	=38
8r	.	1r	.	1r	.	00r	.	1ryy	4cc\	4ee\
16D\LL	.	.	.	.	.	.	.	.	.	.
16F#\JJ	.	.	.	.	.	.	.	.	.	.
8A\L	.	.	.	.	.	.	.	.	4cc\	4ee\
8d\J	.	.	.	.	.	.	.	.	.	.
4D\	.	.	.	.	.	.	.	.	8cc\L	8ee\L
.	.	.	.	.	.	.	.	.	16ee\L	16gg\L
.	.	.	.	.	.	.	.	.	16dd\JJ	16ff\JJ
4r	.	.	.	.	.	.	.	.	8cc\L	8ee\L
.	.	.	.	.	.	.	.	.	8dd\J	8ff\J
!	!	!	!	!	!	!	!	!	!	!LO:LB:g=original
=39	=39	=39	=39	=39	=39	=39	=39	=39	=39	=39
*tremolo	*	*	*	*	*	*	*	*	*	*
8D\L	.	2r	.	2r	.	.	.	1ryy	8.ee\L	8.gg\L
8D\	.	.	.	.	.	.	.	.	.	.
.	.	.	.	.	.	.	.	.	16ff\K	16aa\K
8D\	.	.	.	.	.	.	.	.	8.ee\	8.gg\
8D\J	.	.	.	.	.	.	.	.	.	.
.	.	.	.	.	.	.	.	.	16ff\Jk	16aa\Jk
*Xtremolo	*	*	*	*	*	*	*	*	*	*
8D\L	.	8r	.	8r	.	.	.	.	4ee\	4gg\
!	!	!	!	!	!LO:DY:a	!	!	!	!	!
16D\L	.	16d/LL	.	16d/LL	f	.	.	.	.	.
16F#\JJ	.	16f#/JJ	.	16f#/JJ	.	.	.	.	.	.
8A\L	.	8a\L	.	8a\L	.	.	.	.	4r	4r
8d\J	.	8dd\J	.	8dd\J	.	.	.	.	.	.
!	!	!	!	!	!	!	!	!	!LO:LB:g=original	!
=40	=40	=40	=40	=40	=40	=40	=40	=40	=40	=40
!LO:TX:t=P:problem=mixed beam	!	!	!	!	!	!	!	!	!	!
8A\L	.	2r	.	2r	.	.	.	1ryy	8.dd\L	8.ff\L
8AA/	.	.	.	.	.	.	.	.	.	.
.	.	.	.	.	.	.	.	.	16ee\K	16gg\K
8AA/	.	.	.	.	.	.	.	.	8.dd\	8.ff\
8AA/J	.	.	.	.	.	.	.	.	.	.
.	.	.	.	.	.	.	.	.	16ee\Jk	16gg\Jk
8AA/L	.	8r	.	8r	.	.	.	.	4dd\	4ff\
16AA/L	.	16A/LL	.	16A/LL	.	.	.	.	.	.
16C#/JJ	.	16c#/JJ	.	16c#/JJ	.	.	.	.	.	.
8E\L	.	8e/L	.	8e/L	.	.	.	.	4r	4r
8A\J	.	8a/J	.	8a/J	.	.	.	.	.	.
=41	=41	=41	=41	=41	=41	=41	=41	=41	=41	=41
*tremolo	*	*	*	*	*	*	*	*	*	*
8D\L	.	2r	.	2r	.	.	.	1ryy	8.cc\L	8.ee\L
8D\	.	.	.	.	.	.	.	.	.	.
.	.	.	.	.	.	.	.	.	16dd\K	16ff\K
8D\	.	.	.	.	.	.	.	.	8.cc\	8.ee\
8D\J	.	.	.	.	.	.	.	.	.	.
.	.	.	.	.	.	.	.	.	16dd\Jk	16ff\Jk
*Xtremolo	*	*	*	*	*	*	*	*	*	*
8D\L	.	8r	.	8r	.	.	.	.	4cc\	4ee\
16D\L	.	16d/LL	.	16d/LL	.	.	.	.	.	.
16F#\JJ	.	16f#/JJ	.	16f#/JJ	.	.	.	.	.	.
8A\L	.	8a/L	.	8a\L	.	.	.	.	4r	4r
8d\J	.	8dd/J	.	8dd\J	.	.	.	.	.	.
!	!	!LO:LB:g=original	!	!	!	!	!	!	!	!
=42	=42	=42	=42	=42	=42	=42	=42	=42	=42	=42
!	!	!	!LO:DY:a	!	!LO:DY:a	!	!	!	!	!
8D\L	.	8d/L	p	8d/L	p	00r	.	1ryy	8ee\	8gg\
8D\	.	8d/	.	8d/	.	.	.	.	4dd\	4ff\
8G\	.	8g/	.	8g/	.	.	.	.	.	.
8G\J	.	8g/J	.	8g/J	.	.	.	.	8cc\	8ee\
!	!	!	!	!	!LO:DY:a	!	!	!	!	!
8A\L	.	16a\LL	.	16a\LL	f	.	.	.	4g/	4dd\
.	.	16ee\	.	16ee\	.	.	.	.	.	.
8A\	.	16ff#\	.	16ff#\	.	.	.	.	.	.
.	.	16gg#X\JJ	.	16gg#X\JJ	.	.	.	.	.	.
8c#\	.	16aa\LL	.	16aa\LL	.	.	.	.	4r	4r
.	.	16ee\	.	16ee\	.	.	.	.	.	.
8A\J	.	16ff#\	.	16ff#\	.	.	.	.	.	.
.	.	16ee\JJ	.	16ee\JJ	.	.	.	.	.	.
=43	=43	=43	=43	=43	=43	=43	=43	=43	=43	=43
8B\L	.	16dd\LL	.	16dd\LL	.	.	.	1ryy	2r	2r
.	.	16b\	.	16b\	.	.	.	.	.	.
8E\	.	16bb\	.	16bb\	.	.	.	.	.	.
.	.	16aa\JJ	.	16aa\JJ	.	.	.	.	.	.
8E\	.	16gg#X\LL	.	16gg#X\LL	.	.	.	.	.	.
.	.	16ff#\	.	16ff#\	.	.	.	.	.	.
8E\J	.	16ee\	.	16ee\	.	.	.	.	.	.
.	.	16dd\JJ	.	16dd\JJ	.	.	.	.	.	.
!LO:TX:t=P:problem=mixed beam	!	!	!	!	!	!	!	!	!	!
8A\L	.	16cc#\LL	.	16cc#\LL	.	.	.	.	4r	4r
.	.	16a\	.	16a\	.	.	.	.	.	.
8D\	.	16ff#\	.	16ff#\	.	.	.	.	.	.
.	.	16aa\JJ	.	16aa\JJ	.	.	.	.	.	.
8E\	.	16cc#\LL	.	16cc#\LL	.	.	.	.	8dd\L	8dd\L
.	.	16b\	.	16b\	.	.	.	.	.	.
8EE/J	.	16a\	.	16a\	.	.	.	.	16dd\L	16dd\L
.	.	16g#X\JJ	.	16g#X\JJ	.	.	.	.	16dd\JJ	16dd\JJ
.	.	.	.	8qqg#/	.	.	.	.	.	.
!LO:LB:g=original	!	!	!	!LO:LB:g=original	!	!	!	!	!	!
=44	=44	=44	=44	=44	=44	=44	=44	=44	=44	=44
!LO:TX:t=P:problem=mixed beam	!	!	!	!	!	!	!	!	!	!
8AA/L	.	4a/	.	4a/	.	.	.	1ryy	8g\L	8ee\L
8A\	.	.	.	.	.	.	.	.	8g\	8ee\
8AA/	.	4r	.	4r	.	.	.	.	8cc\	8ee\
8A\J	.	.	.	.	.	.	.	.	8dd\J	8ff\J
4D\	.	2r	.	2r	.	.	.	.	16cc\LL	16ee\LL
.	.	.	.	.	.	.	.	.	16ee\JJ	16gg\JJ
.	.	.	.	.	.	.	.	.	4dd\	4ff\
8r	.	.	.	.	.	.	.	.	.	.
8A\	.	.	.	.	.	.	.	.	8g/	8dd\
=45	=45	=45	=45	=45	=45	=45	=45	=45	=45	=45
!LO:TX:t=P:problem=mixed beam	!	!	!	!	!	!	!	!	!	!
8D\L	.	1r	.	1r	.	.	.	1ryy	8cc\L	8ee\L
8A\	.	.	.	.	.	.	.	.	8g\	8dd\
8AA/	.	.	.	.	.	.	.	.	8cc\	8ee\
8A\J	.	.	.	.	.	.	.	.	8dd\J	8ff\J
4D\	.	.	.	.	.	.	.	.	16cc\LL	16ee\LL
.	.	.	.	.	.	.	.	.	16ee\JJ	16gg\JJ
.	.	.	.	.	.	.	.	.	4dd\	4ff\
8r	.	.	.	.	.	.	.	.	.	.
8A\	.	.	.	.	.	.	.	.	8g/	8dd\
=46	=46	=46	=46	=46	=46	=46	=46	=46	=46	=46
8D\L	.	16ff#\LL	.	16ff#\LL	.	0r	.	1ryy	8cc\L	8ee\L
.	.	16aa\	.	16aa\	.	.	.	.	.	.
8D\	.	16ff#\	.	16ff#\	.	.	.	.	8cc\	8cc\
.	.	16dd\JJ	.	16dd\JJ	.	.	.	.	.	.
!	!	!LO:TX:t=P:problem=mixed beam	!	!LO:TX:t=P:problem=mixed beam	!	!	!	!	!	!
8F#\	.	16a/LL	.	16a/LL	.	.	.	.	8cc\	8cc\
.	.	16f#/	.	16f#/	.	.	.	.	.	.
8F#\J	.	16d/	.	16d/	.	.	.	.	8cc\J	8cc\J
.	.	16ccn\JJ	.	16ccn\JJ	.	.	.	.	.	.
!	!	!LO:TX:t=P:problem=mixed beam	!	!LO:TX:t=P:problem=mixed beam	!	!	!	!	!	!
8G\L	.	16b/LL	.	16b/LL	.	.	.	.	8cc\L	8cc\L
.	.	16bb\	.	16bb\	.	.	.	.	.	.
8E\	.	16gg#X\	.	16gg#X\	.	.	.	.	8dd\	8dd\
.	.	16ee\JJ	.	16ee\JJ	.	.	.	.	.	.
!	!	!LO:TX:t=P:problem=mixed beam	!	!LO:TX:t=P:problem=mixed beam	!	!	!	!	!	!
8G#X\	.	16b/LL	.	16b/LL	.	.	.	.	8dd\	8dd\
.	.	16g#X/	.	16g#X/	.	.	.	.	.	.
8G#\J	.	16e/	.	16e/	.	.	.	.	8dd\J	8dd\J
.	.	16dd\JJ	.	16dd\JJ	.	.	.	.	.	.
=47	=47	=47	=47	=47	=47	=47	=47	=47	=47	=47
!LO:TX:t=P:problem=mixed beam	!	!	!	!	!	!	!	!	!	!
8A\L	.	16cc#\LL	.	16cc#\LL	.	.	.	1ryy	8g/L	8dd\L
.	.	16ee\	.	16ee\	.	.	.	.	.	.
8AA/	.	16cc#\	.	16cc#\	.	.	.	.	8g/	8dd\
.	.	16a\JJ	.	16a\JJ	.	.	.	.	.	.
!	!	!LO:TX:t=P:problem=mixed beam	!	!LO:TX:t=P:problem=mixed beam	!	!	!	!	!	!
8C#/	.	16gn/LL	.	16gn/LL	.	.	.	.	8g/	8dd\
.	.	16e/	.	16e/	.	.	.	.	.	.
8C#/J	.	16A/	.	16A/	.	.	.	.	8g/J	8dd\J
.	.	16gg\JJ	.	16gg\JJ	.	.	.	.	.	.
!LO:TX:t=P:problem=mixed beam	!	!	!	!	!	!	!	!	!	!
8D\L	.	16ff#\LL	.	16ff#\LL	.	.	.	.	8cc\L	8ee\L
.	.	16dd\	.	16dd\	.	.	.	.	.	.
8G\	.	16bb\	.	16bb\	.	.	.	.	8dd\	8ff\
.	.	16gg\JJ	.	16gg\JJ	.	.	.	.	.	.
8A\	.	16ff#\LL	.	16ff#\LL	.	.	.	.	8cc\	8ee\
.	.	16dd\	.	16dd\	.	.	.	.	.	.
8AA/J	.	16ee\	.	16ee\	.	.	.	.	8g\J	8dd\J
.	.	16cc#\JJ	.	16cc#\JJ	.	.	.	.	.	.
!	!	!	!	!	!	!	!	!	!	!LO:LB:g=original
=48	=48	=48	=48	=48	=48	=48	=48	=48	=48	=48
!LO:TX:t=P:problem=mixed beam	!	!	!	!	!	!	!	!	!	!
8D\L	.	16ff#\LL	.	16ff#\LL	.	1r	.	1ryy	8cc\L	8ee\L
.	.	16dd\	.	16dd\	.	.	.	.	.	.
8G\	.	16bb\	.	16bb\	.	.	.	.	8dd\	8ff\
.	.	16gg\JJ	.	16gg\JJ	.	.	.	.	.	.
8A\	.	16ff#\LL	.	16ff#\LL	.	.	.	.	8cc\	8ee\
.	.	16dd\	.	16dd\	.	.	.	.	.	.
8AA/J	.	16ee\	.	16ee\	.	.	.	.	8g\J	8dd\J
.	.	16cc#\JJ	.	16cc#\JJ	.	.	.	.	.	.
!	!	!LO:TX:t=P:problem=mixed beam	!	!LO:TX:t=P:problem=mixed beam	!	!	!	!	!	!
8D\L	.	8dd\L	.	8dd\L	.	.	.	.	8cc\L	8ee\L
16D\L	.	16d/L	.	16d/L	.	.	.	.	16cc\L	16ee\L
16D\JJ	.	16d/JJ	.	16d/JJ	.	.	.	.	16cc\JJ	16ee\JJ
!LO:TX:t=P:||:problem=ozdobna kreska taktowa 	!	!LO:TX:t=P:||:problem=ozdobna kreska taktowa 	!	!LO:TX:t=P:||:problem=ozdobna kreska taktowa 	!	!	!	!	!LO:TX:t=P:||:problem=ozdobna kreska taktowa 	!LO:TX:t=P:||:problem=ozdobna kreska taktowa 
4D\	.	4d/	.	4d/	.	.	.	.	4cc\	4ee;\
!	!	!LO:TX:b:t=Segve. Agnus Solo	!	!	!	!	!	!	!	!
==	==	==	==	==	==	==	==	==	==	==
*-	*-	*-	*-	*-	*-	*-	*-	*-	*-	*-
!!!system-decoration: [(s1,s2)][(s3,s4)][(s5,s6)]s7
!!!EED: Leszek Kubiak
!!!EEV: 2020-10-19
!!!ENC: Krzysztof Stępień
!!!END: 2020-05-21
!!!YEC: Copyright 2022 Narodowy Instytut Fryderyka Chopina (https://polishscores.org)
!!!YEM: License CC-BY-4.0 (https://creativecommons.org/licenses/by/4.0)
